X: 22924
T: Larry O'Gaff's
R: jig
M: 6/8
K: Dmajor
dDD FED|~A3 A2F|~G3 F2E|DFA B2c|
dDD FED|~A3 A2F|~G3 EAG|FDC D2A:|
~d3 ede|fdB AFA|~d3 ede|fdc d2A|
def edB|AdB AGF|~G3 EAG|FDC D2A:|

